shot/img/icons/phone.svg

<svg width="11" height="25" viewBox="0 0 11 25" fill="none" xmlns="http://www.w3.org/2000/svg">
<g clip-path="url(#clip0_19_11)">
<path d="M10.55 21.18C10.52 21.1 9.57001 17.94 9.35001 17.42C9.26001 17.21 9.16001 16.99 8.99001 16.81C8.72001 16.52 8.34001 16.41 7.88001 16.48C7.36001 16.56 5.98001 16.62 5.56001 16.63C5.51001 16.63 5.44001 16.63 5.42001 16.61C5.40001 16.59 5.23001 16.13 5.18001 15.98C4.02001 12.72 4.80001 8.69 4.99001 8.06C5.02001 7.97 5.04001 7.94 5.04001 7.94C5.08001 7.92 5.23001 7.91999 5.31001 7.93C5.54001 7.93 5.81001 7.93 6.07001 7.91C6.20001 7.91 6.32001 7.9 6.44001 7.89C6.82001 7.87 7.05001 7.79999 7.33001 7.72L7.47001 7.68C8.13001 7.49 8.33001 6.94 8.39001 6.76C8.44001 6.61 9.80001 3.64 9.94001 3.33C10.28 2.57 10.25 2.02 9.85001 1.59C9.81001 1.55 9.85001 1.59 9.69001 1.43C9.49001 1.23 8.31001 0.259995 7.55001 0.0599952C6.74001 -0.150005 4.87001 -0.0600048 3.04001 1.65C1.38001 3.22 0.800007 5.72 0.630006 6.72C0.630006 6.75 0.610007 6.79 0.600007 6.86C-0.309994 10.93 -0.169993 14.82 0.990007 17.81C2.11001 20.69 2.94001 21.77 3.46001 22.34C3.68001 22.58 3.88001 22.75 4.05001 22.9L4.16001 23C4.90001 23.66 7.21001 24.49 8.55001 23.91C9.61001 23.46 10.55 22.72 10.68 22.24C10.77 21.91 10.68 21.59 10.54 21.18H10.55Z" fill="white"/>
</g>
<defs>
<clipPath id="clip0_19_11">
<rect width="10.72" height="24.11" fill="white"/>
</clipPath>
</defs>
</svg>

<svg width="11" height="25" fill="none" xmlns="http://www.w3.org/2000/svg"><g clip-path="url(#clip0_19_11)"><path d="M10.55 21.18c-.03-.08-.98-3.24-1.2-3.76-.09-.21-.19-.43-.36-.61-.27-.29-.65-.4-1.11-.33-.52.08-1.9.14-2.32.15-.05 0-.12 0-.14-.02-.02-.02-.19-.48-.24-.63-1.16-3.26-.38-7.29-.19-7.92.03-.09.05-.12.05-.12.04-.02.19-.02.27-.01.23 0 .5 0 .76-.02.13 0 .25-.01.37-.02.38-.02.61-.09.89-.17l.14-.04c.66-.19.86-.74.92-.92.05-.15 1.41-3.12 1.55-3.43.34-.76.31-1.31-.09-1.74l-.16-.16C9.49 1.23 8.31.26 7.55.06c-.81-.21-2.68-.12-4.51 1.59C1.38 3.22.8 5.72.63 6.72c0 .03-.02.07-.03.14-.91 4.07-.77 7.96.39 10.95 1.12 2.88 1.95 3.96 2.47 4.53.22.24.42.41.59.56l.11.1c.74.66 3.05 1.49 4.39.91 1.06-.45 2-1.19 2.13-1.67.09-.33 0-.65-.14-1.06h.01z" fill="#fff"/></g><defs><clipPath id="clip0_19_11"><path fill="#fff" d="M0 0h10.72v24.11H0z"/></clipPath></defs></svg>
